assets/awsinternetofthings/original.svg

<svg height="74" viewBox="0 0 74 74" width="74" xmlns="http://www.w3.org/2000/svg"><g fill="none" fill-rule="evenodd"><path d="m5 5h64v64h-64z" fill="#7aa116"/><path d="m1 1h72v72h-72z" stroke="#879196" stroke-width="2"/><path d="m37 27.5c-2.757 0-5-2.243-5-5s2.243-5 5-5 5 2.243 5 5-2.243 5-5 5m-9 10.866v-14.366h2.166c.689 3.141 3.49 5.5 6.834 5.5.059 0 .115-.007.173-.009a16.45 16.45 0 0 1 -9.173 8.875m-5 1.094v-25.54a7 7 0 0 0 5.914-5.882 16.6 16.6 0 0 1 7.784 7.477 7 7 0 0 0 -6.673 6.485h-3.025a1 1 0 0 0 -1 1v16.008c-.973.242-1.977.391-3 .452m-5-.452v-16.008a1 1 0 0 0 -1-1h-3.025a7 7 0 0 0 -6.673-6.485 16.6 16.6 0 0 1 7.784-7.477 7 7 0 0 0 5.914 5.882v25.54a16.5 16.5 0 0 1 -3-.452m-11.173-9.517c.058.002.114.009.173.009 3.344 0 6.145-2.359 6.834-5.5h2.166v14.366a16.45 16.45 0 0 1 -9.173-8.875m-4.827-6.991c0-2.757 2.243-5 5-5s5 2.243 5 5-2.243 5-5 5-5-2.243-5-5m20-20.5c2.757 0 5 2.243 5 5s-2.243 5-5 5-5-2.243-5-5 2.243-5 5-5m17.031 13.803c-1.911-4.517-5.579-8.143-10.137-9.974-.56-3.303-3.434-5.829-6.894-5.829s-6.334 2.526-6.894 5.829c-4.558 1.831-8.226 5.457-10.137 9.974-2.872.873-4.969 3.544-4.969 6.697 0 2.984 1.881 5.531 4.516 6.536a18.45 18.45 0 0 0 11.484 11.462v3.502h2v-2.945q1.467.323 3 .405v2.54h2v-2.54a18.5 18.5 0 0 0 3-.405v2.945h2v-3.502a18.45 18.45 0 0 0 11.484-11.462c2.635-1.005 4.516-3.552 4.516-6.536 0-3.153-2.097-5.824-4.969-6.697" fill="#fff" transform="translate(15 15)"/></g></svg>

<svg xmlns="http://www.w3.org/2000/svg" width="74" height="74" viewBox="0 0 74 74"><title>Icon-Architecture-Category/48/Internet-of-Things_48</title><g id="Icon-Architecture-Category/48/Internet-of-Things_48" fill="none" fill-rule="evenodd" stroke="none" stroke-width="1"><path id="Rectangle" fill="#7aa116" d="M5 5h64v64H5z"/><path id="#879196-Border-Copy-13" stroke="#879196" stroke-width="2" d="M1 1h72v72H1z"/><g id="Icon-Category/48/IoT_48" fill="#fff" transform="translate(15 15)"><path id="IoT_Category-Icon_48_Squid--" d="M37 27.5c-2.757 0-5-2.243-5-5s2.243-5 5-5 5 2.243 5 5-2.243 5-5 5m-9 10.866V24h2.166c.689 3.141 3.49 5.5 6.834 5.5.059 0 .115-.007.173-.009A16.45 16.45 0 0 1 28 38.366m-5 1.094V13.92a7 7 0 0 0 5.914-5.882 16.6 16.6 0 0 1 7.784 7.477A7 7 0 0 0 30.025 22H27a1 1 0 0 0-1 1v16.008c-.973.242-1.977.391-3 .452m-5-.452V23a1 1 0 0 0-1-1h-3.025a7 7 0 0 0-6.673-6.485 16.6 16.6 0 0 1 7.784-7.477A7 7 0 0 0 21 13.92v25.54a16.5 16.5 0 0 1-3-.452M6.827 29.491c.058.002.114.009.173.009 3.344 0 6.145-2.359 6.834-5.5H16v14.366a16.45 16.45 0 0 1-9.173-8.875M2 22.5c0-2.757 2.243-5 5-5s5 2.243 5 5-2.243 5-5 5-5-2.243-5-5M22 2c2.757 0 5 2.243 5 5s-2.243 5-5 5-5-2.243-5-5 2.243-5 5-5m17.031 13.803c-1.911-4.517-5.579-8.143-10.137-9.974C28.334 2.526 25.46 0 22 0s-6.334 2.526-6.894 5.829C10.548 7.66 6.88 11.286 4.969 15.803 2.097 16.676 0 19.347 0 22.5c0 2.984 1.881 5.531 4.516 6.536A18.45 18.45 0 0 0 16 40.498V44h2v-2.945q1.467.323 3 .405V44h2v-2.54a18.5 18.5 0 0 0 3-.405V44h2v-3.502a18.45 18.45 0 0 0 11.484-11.462C42.119 28.031 44 25.484 44 22.5c0-3.153-2.097-5.824-4.969-6.697"/></g></g></svg>
